packages/swarm-icons/src/icons/line/Notif Selected.svg

<svg xmlns="http://www.w3.org/2000/svg" width="24" height="24" viewBox="0 0 24 24">
  <path fill="#757575" d="M12,2 C13.3561105,2 14.4600303,3.07975681 14.4989388,4.42644981 C17.4613745,5.47172536 19.5,8.28670282 19.5,11.5 L19.5,15.5 C19.5,15.8905243 19.6094757,16 20,16 C20.8284271,16 21.5,16.6715729 21.5,17.5 L21.5,18.5 C21.5,19.3284271 20.8284271,20 20,20 L4,20 C3.17157288,20 2.5,19.3284271 2.5,18.5 L2.5,17.5 C2.5,16.6715729 3.17157288,16 4,16 C4.39052429,16 4.5,15.8905243 4.5,15.5 L4.5,11.5 C4.5,8.28670282 6.53862552,5.47172536 9.50106119,4.42644981 C9.53996966,3.07975681 10.6438895,2 12,2 Z M9.5,21 L14.5,21 C14.7761424,21 15,21.2238576 15,21.5 C15,21.7761424 14.7761424,22 14.5,22 L9.5,22 C9.22385763,22 9,21.7761424 9,21.5 C9,21.2238576 9.22385763,21 9.5,21 Z"/>
</svg>

<svg xmlns="http://www.w3.org/2000/svg" width="24" height="24"><path fill="#757575" d="M12 2a2.5 2.5 0 012.499 2.426A7.503 7.503 0 0119.5 11.5v4c0 .39.11.5.5.5a1.5 1.5 0 011.5 1.5v1A1.5 1.5 0 0120 20H4a1.5 1.5 0 01-1.5-1.5v-1A1.5 1.5 0 014 16c.39 0 .5-.11.5-.5v-4a7.503 7.503 0 015.001-7.074A2.5 2.5 0 0112 2zM9.5 21h5a.5.5 0 110 1h-5a.5.5 0 110-1z"/></svg>
